assets/svg/icon_2fa_lastpass.svg

<svg width="24" height="24" viewBox="0 0 24 24" fill="none" xmlns="http://www.w3.org/2000/svg">
<path d="M17.5603 7.54982V15.0498M12.0003 2.24982C12.0433 2.24225 12.0873 2.24225 12.1303 2.24982L20.1703 4.65982C20.265 4.68853 20.348 4.74667 20.4073 4.8258C20.4667 4.90492 20.4993 5.00091 20.5003 5.09982V12.9998C20.5099 14.0518 20.2981 15.0941 19.8785 16.0589C19.459 17.0236 18.8412 17.8894 18.0653 18.5998C16.5653 20.0198 14.4803 21.0148 12.1303 21.7098C12.0457 21.7366 11.9549 21.7366 11.8703 21.7098C9.52031 21.0148 7.44531 20.0198 5.93531 18.5998C5.15937 17.8894 4.54158 17.0236 4.12207 16.0589C3.70256 15.0941 3.49072 14.0518 3.50031 12.9998V5.09982C3.50137 5.00091 3.53394 4.90492 3.59328 4.8258C3.65263 4.74667 3.73566 4.68853 3.83031 4.65982L11.8703 2.26982C11.9133 2.26225 11.9573 2.26225 12.0003 2.26982V2.24982ZM7.54531 9.84982C7.82913 9.84982 8.10657 9.93398 8.34256 10.0917C8.57854 10.2493 8.76247 10.4735 8.87108 10.7357C8.97969 10.9979 9.00811 11.2864 8.95274 11.5648C8.89737 11.8431 8.7607 12.0988 8.56001 12.2995C8.35932 12.5002 8.10363 12.6369 7.82527 12.6922C7.5469 12.7476 7.25837 12.7192 6.99616 12.6106C6.73395 12.502 6.50983 12.318 6.35215 12.0821C6.19447 11.8461 6.11031 11.5686 6.11031 11.2848C6.11031 10.9042 6.2615 10.5392 6.53061 10.2701C6.79973 10.001 7.16473 9.84982 7.54531 9.84982ZM11.1953 9.84982C11.4791 9.84982 11.7566 9.93398 11.9926 10.0917C12.2285 10.2493 12.4125 10.4735 12.5211 10.7357C12.6297 10.9979 12.6581 11.2864 12.6027 11.5648C12.5474 11.8431 12.4107 12.0988 12.21 12.2995C12.0093 12.5002 11.7536 12.6369 11.4753 12.6922C11.1969 12.7476 10.9084 12.7192 10.6462 12.6106C10.3839 12.502 10.1598 12.318 10.0022 12.0821C9.84447 11.8461 9.76031 11.5686 9.76031 11.2848C9.76163 10.9046 9.91324 10.5404 10.1821 10.2716C10.4509 10.0027 10.8151 9.85114 11.1953 9.84982ZM14.8403 9.84982C15.1241 9.84982 15.4016 9.93398 15.6376 10.0917C15.8735 10.2493 16.0575 10.4735 16.1661 10.7357C16.2747 10.9979 16.3031 11.2864 16.2477 11.5648C16.1924 11.8431 16.0557 12.0988 15.855 12.2995C15.6543 12.5002 15.3986 12.6369 15.1203 12.6922C14.8419 12.7476 14.5534 12.7192 14.2912 12.6106C14.0289 12.502 13.8048 12.318 13.6472 12.0821C13.4895 11.8461 13.4053 11.5686 13.4053 11.2848C13.4053 10.9042 13.5565 10.5392 13.8256 10.2701C14.0947 10.001 14.4597 9.84982 14.8403 9.84982Z" stroke="#BC3B30" stroke-width="1.2" stroke-linecap="round" stroke-linejoin="round"/>
</svg>

<svg xmlns="http://www.w3.org/2000/svg" width="24" height="24" fill="none"><path stroke="#BC3B30" stroke-linecap="round" stroke-linejoin="round" stroke-width="1.2" d="M17.56 7.55v7.5M12 2.25a.4.4 0 0 1 .13 0l8.04 2.41a.465.465 0 0 1 .33.44V13a7.5 7.5 0 0 1-2.435 5.6c-1.5 1.42-3.585 2.415-5.935 3.11a.43.43 0 0 1-.26 0c-2.35-.695-4.425-1.69-5.935-3.11A7.5 7.5 0 0 1 3.5 13V5.1a.465.465 0 0 1 .33-.44l8.04-2.39a.4.4 0 0 1 .13 0zm-4.455 7.6a1.435 1.435 0 1 1 0 2.87 1.435 1.435 0 0 1 0-2.87m3.65 0a1.435 1.435 0 1 1 0 2.87 1.435 1.435 0 0 1 0-2.87m3.645 0a1.435 1.435 0 1 1 0 2.87 1.435 1.435 0 0 1 0-2.87"/></svg>
